img/svg/profile-icons/user-profile-avatar.svg

<svg width="48" height="48" viewBox="0 0 48 48" fill="none" xmlns="http://www.w3.org/2000/svg">
<rect width="48" height="48" fill="#EBECF8"/>
<path d="M33.9498 31.1376C33.8618 30.7152 33.4482 30.4441 33.0257 30.532C32.6032 30.6199 32.3321 31.0337 32.4201 31.4561C32.4707 31.6994 32.4104 31.9488 32.2546 32.1404C32.1644 32.2514 31.9632 32.4375 31.6297 32.4375H16.3713C16.0378 32.4375 15.8366 32.2513 15.7463 32.1404C15.5905 31.9488 15.5302 31.6994 15.5809 31.4561C16.3916 27.5617 19.8266 24.717 23.7934 24.621C23.8621 24.6237 23.9311 24.625 24.0005 24.625C24.0701 24.625 24.1394 24.6236 24.2084 24.621C27.0026 24.688 29.5852 26.1033 31.1493 28.4358C31.3895 28.7942 31.8748 28.8899 32.2332 28.6496C32.5916 28.4094 32.6873 27.9241 32.447 27.5657C31.1651 25.6538 29.3037 24.2636 27.1813 23.565C28.4746 22.5952 29.313 21.0499 29.313 19.3125C29.313 16.3832 26.9298 14 24.0005 14C21.0711 14 18.688 16.3832 18.688 19.3125C18.688 21.0509 19.5273 22.597 20.8221 23.5668C19.6358 23.9574 18.5227 24.5651 17.5485 25.3664C15.7621 26.8358 14.52 28.8854 14.0512 31.1376C13.9042 31.8433 14.0803 32.5682 14.5341 33.1262C14.9857 33.6815 15.6554 34 16.3713 34H31.6296C32.3456 34 33.0152 33.6815 33.4668 33.1262C33.9207 32.5682 34.0967 31.8433 33.9498 31.1376ZM20.2505 19.3125C20.2505 17.2447 21.9327 15.5625 24.0005 15.5625C26.0682 15.5625 27.7505 17.2447 27.7505 19.3125C27.7505 21.3166 26.1702 22.9586 24.1903 23.0577C24.1271 23.0566 24.0638 23.056 24.0005 23.056C23.9374 23.056 23.8744 23.0566 23.8114 23.0578C21.8311 22.959 20.2505 21.3169 20.2505 19.3125Z" fill="#4C51CC"/>
</svg>

<svg width="48" height="48" fill="none" xmlns="http://www.w3.org/2000/svg"><path fill="#EBECF8" d="M0 0h48v48H0z"/><path d="M33.95 31.138a.781.781 0 00-1.53.318.816.816 0 01-.165.684.793.793 0 01-.625.297H16.37a.794.794 0 01-.625-.297.816.816 0 01-.165-.684c.81-3.894 4.246-6.739 8.212-6.835a5.272 5.272 0 00.415 0 8.595 8.595 0 016.941 3.815.781.781 0 101.298-.87 10.162 10.162 0 00-5.266-4.001 5.308 5.308 0 002.132-4.253A5.319 5.319 0 0024 14a5.318 5.318 0 00-5.312 5.313 5.31 5.31 0 002.134 4.254c-1.186.39-2.3.998-3.273 1.8a10.192 10.192 0 00-3.498 5.77A2.372 2.372 0 0016.371 34H31.63a2.372 2.372 0 002.32-2.862zm-13.7-11.826a3.754 3.754 0 013.75-3.75 3.754 3.754 0 013.75 3.75 3.755 3.755 0 01-3.56 3.746 10.909 10.909 0 00-.379 0 3.755 3.755 0 01-3.56-3.745z" fill="#4C51CC"/></svg>
